X:7294
T:The Rose of Cloonoe
O:england
R:song air
B:Joyce, P. W.; "Old Irish Folk Music and Songs"
L:1/8
M:6/8
K:F
"Graceful"\
B/A/|G>AG DB,C|DFF F2 G/A/|B>AG cAF|DGG G2 A|
B>cd cdB|AcA F2 G/A/|B>AG FDC|DDC HB, "Chorus"B,/C/|DGG G2 F|DGG G2||
